X: 12343
T: Fall Of Dunboy, The
R: hornpipe
M: 4/4
K: Gmajor
dc|:B2GB DBGB|d2BG d2BG|B2GB DBGB|c2AD c2AD|
BGBd c2dc|BGBd gfdc|BGBd gfdc|1 B2G2 G2dc:|2 B2G2 G2Bc||
dgBg d2Bd|gBdg B3d|~g3a b3a|gfgb d3e|
=fefd cdcd|=fefd g3e|fgfd cdfa|g2gf g3a|
b3a gfga|b2bg d3e|fafd fafd|gbgd gbgd|
fafd fafd|dccB c2dc|BGBd d2cA|BGBd gfdc|
BGBd gfdc|1 B2G2 G2Bc:|2 B2G2 G2dc||

